X:146
T:Mekhuteneste Mayne
O:klezmer
M:2/4
L:1/8
Q:1/4=120
K:Dm
V:1
"A" az e3/2 d/|^c/d/(e e)^c |"Gm" de/d/ ^cB |"A" ^cA2 A
|"A" a ze3/2 d/|^c/d/(e e)^c |"Gm" de/d/ ^cB |"A" A3 A
|] "Dm" d dd d|d Af e|d4 |d3 e
|"F" f ff f|f eg f|"A" e4 |e3 f
|:"Gm" g ab a|g z2 f|g fe d|"A7" e z2 ^c|
^c de d|^c AB/A/ G|1 "A" A4 |a3 ^g:|2
A4 |A4 ||  |:"A" [A3/2^c3/2][B/d/][^c3/2e3/2][B/d/]|[A/^c/][B/d/][A/^c/][B/d/][^c3/2e3/2][B/d/]|
[A^c][Bd][^ce][df]|[e/g/][a/^c'/][a/^c'/][e/g/][e/g/][d/f/][^c/e/][B/d/]|[A3/2^c3/2][B/d/][^c3/2e3/2][B/d/]|[A/^c/][B/d/][A/^c/][B/d/][^c3/2e3/2][B/d/]|
"Gm" [G/B/][^F/A/][G/B/][A/^c/][B/d/][d/f/][^c/e/][B/d/]|1 [z/A/]a/g/f/e/ d/^c/B/:|2 [A^c][^c/e/][e/g/]a a/a/||





